X:1
T:James Gibb editions
T:I lay my sins on Jesus - Barnby
%%score [ ( 1 2 ) ( 3 4 ) ]
L:1/8
Q:1/4=72
M:4/4
K:Eb
V:1 treble nm="Midi_74"
V:2 treble 
V:3 bass nm="Midi_74"
V:4 bass 
V:1
"^Slow, smooth, and tenderly""^Horatio Bonar\n(1808-89)""^I lay my sins on Jesus""^Joseph Barnby\n(1838-96)" B2 | %1
 !>!B2 A2 G2 F2 |!>(! F4 E2!>)! || c2 | c3 c B2 A2 |!<(! G6!<)! || e2 | d2 c2 B2 c2 | %8
!>(! B4 A2!>)! || G2 | F2 E2 D2 E2 | F6 ||[M:4/4]!p! F2 | G2 G2 G2 G2 | G4 c2 || G2 | A2 A2 B2 c2 | %17
 d6 ||!f! d2 | f3 f e2 =B2 |!>(! d4 c2!>)! || F2 |"^rit." G2 c2 B2 D2 | E6 || A4 G4 |] %25
V:2
 E2 | !>!E2 E2 D2 D2 | D4 E2 || E2 | F2 F2 F2 F2 | E6 || G2 | F2 D2 E2 =E2 | =E4 F2 || =B,2 | %10
 C2 C2 D2 C2 | D6 ||[M:4/4] D2 | E2 E2 F2 F2 | F4 =E2 || =E2 | F2 F2 G2 A2 | A6 || A2 | %19
 A3 A G2 F2 | F4 E2 || E2 | E2 E2 D2 B,2 | B,6 || E4 E4 |] %25
V:3
 G,2 | !>!C2 C2 B,2 A,2 | A,4 G,2 || A,2 | A,2 F,2 B,2 B,2 | B,6 || B,2 | A,2 A,2 G,2 C2 | %8
 _D4 C2 || G,2 | A,2 G,2 =A,2 A,2 | B,6 || %12
[M:4/4]"^1 I lay my sins on Jesus,\nthe spotless Lamb of God;\nHe bears them all, and frees us\nfrom the accursed load;\nI bring my guilt to Jesus,\nto wash my crimson stains\nwhite in His blood most precious,\ntill not a spot remains.\n\n2 I lay my wants on Jesus;\nall fullness dwells in Him;\nHe heals all my diseases,\nHe doth my soul redeem;\nI lay my griefs on Jesus,\nmy burdens and my cares;\nHe from them all releases,\nHe all my sorrows shares." B,2 | %13
 B,2 B,2 B,2 B,2 | B,4 G,2 || C2 |"^cresc." C2 C2 F2 E2 | D6 || D2 | %19
"^3 I rest my soul on Jesus,\nthis weary soul of mine;\nHis right hand me embraces,\nI on his breast recline.\nI love the Name of Jesus,\nImmanuel, Christ, the Lord;\nlike fragrance on the breezes\nHis Name abroad is poured.\n\n4 I long to be like Jesus,\nmeek, loving, lowly, mild;\nI long to be like Jesus,\nthe Father's holy Child;\nI long to be with Jesus,\namid the heav'nly throng,\nto sing with saints His praises,\nto learn the angels' song." D3 D E2 D2 | %20
 =B,4 C2 ||!p! C2 | B,2 G,2 F,2 A,2 | G,6 || C4 B,4 |] %25
V:4
 E,2 | !>!E,2 E,2 B,,2 B,,2 | C,4 C,2 || C,2 | D,2 D,2 D,2 D,2 | E,6 || E,2 | F,2 F,2 G,2 C,2 | %8
 F,4 F,2 || G,2 | C,2 C,2 F,2 F,2 | B,,6 ||[M:4/4] B,,2 | E,2 E,2 _D,2 D,2 | C,4 C,2 || C,2 | %16
 F,2 F,2 F,2 F,2 | B,,6 || B,,2 | =B,,3 B,, C,2 G,,2 | A,,4 A,,2 || A,,2 | B,,2 B,,2 B,,2 B,,2 | %23
 E,6 || A,,4 E,4 |] %25

